X:1
T:Title
%%score { ( 1 3 5 ) | ( 2 4 ) }
L:1/8
M:4/4
K:F
V:1 treble nm="Grand Piano"
V:3 treble 
V:5 treble 
V:2 bass 
V:4 bass 
V:1
 z4 z2[Q:1/4=100] C2 | F2 F2 F>E F>G | A2 A4 F2 | A2 A2 A>G A>B | [Ac]2 [Ac]4 [Ad]2 | %5
 [DGB]2 [^CGB]2 [=CGB]2 [CEc]2 | [CFA]2 [^CGA]2 [DFA]2 [C^Fc]2 | [CG]2 [CAc]2 [Ge]2 [=B,Fd]2 | %8
[M:3/4] [Cc]2- [CBc-]2 [Ac]2 |[M:1/4] C2 |[M:4/4] F2 F2 F>E F>G | A2 A4 F2 | A2 A2 A>G A>B | %13
 [Ac]2 [Ac]4 [G^c]2 | [Fd]2 [Ac]2 [GB]2 [G=B]2 | [Gc]2 [EB]2 [FA]2 [Fd]2 | [Fc]3 [GB] [FA]2 [EG]2 | %17
 F6 z2 | [Bd]2 z2 z z/ ^c/ [Bd]>[Be] | z2 [Bd]4 z2 | [Ac]2 z2 z z/ =B/ [Ac]>d | z2 [Ac]4 z2 | %22
 [A,EA]2 ^C2 z AE-[EA] | [A,FA]2 ^C2 D2 [A,FA]2 | z4 B2 z2 | [CAc]2 E2 F2 c2 | e3 e d2 d2 | e6 z2 | %28
 e3 e d2 d2 | [Ec]6 z2 | [Bd]2 z2 z z/ ^c/ [Bd]>[Be] | z2 [Bd]4 z2 | [Ac]2 z2 z z/ =B/ [Ac]>d | %33
 z2 [Ac]4 z2 | d2 z2 z ddd | e2 z2 z eee | z2 z f f2 f2 |[M:3/4] z2 e4 |[M:1/4] e2 | %39
[M:4/4] f4 [Fe]2[K:bass][K:treble] [Fd]2 | c2 c2 c2 B2 | %41
 A3 A [B,FG]2 .[B,EG]2[Q:1/4=99][Q:1/4=97][Q:1/4=96][Q:1/4=94][Q:1/4=93][Q:1/4=91][Q:1/4=90][Q:1/4=88][Q:1/4=87][Q:1/4=85][Q:1/4=84][Q:1/4=82][Q:1/4=81][Q:1/4=79][Q:1/4=78][Q:1/4=76] | %42
[M:3/4] [F,A,CF]6 |] %43
V:2
 z4 z2 [F,A,]2 | [F,A,C]2 [F,A,C]2 [F,A,C]>[F,G,C] [F,A,C]>[F,B,C] | [F,CF]2 [F,CF]4 [F,A,]2 | %3
 [F,CF]2 [F,CF]2 [F,CF]>[B,CE] [A,CF]>[G,CG] | [F,C]2 [F,C]4 [^F,C]2 | G,2 F,2 E,2 C,2 | %6
 F,2 E,2 D,2 _E,2 | E,2 F,2 [G,C]2 G,,2 |[M:3/4] z2 [DE]2 [CE]2 |[M:1/4] [E,B,]2 | %10
[M:4/4] [F,A,C]2 [F,A,C]2 [F,A,C]>[F,G,C] [F,A,C]>[F,B,C] | [F,CF]2 [F,CF]4 [F,A,]2 | %12
 [F,CF]2 [F,CF]2 [F,CF]>[B,CE] [A,CF]>[G,CG] | [F,C]2 [F,C]4 [E,A,]2 | %14
 [D,A,]2 [^F,D]2 [G,D]2 [=F,D]2 | [E,C]2 [C,C]2 [F,C]2 [B,,B,]2 | [C,A,]3 [C,C] [C,C]2 [C,B,]2 | %17
 [F,A,]6 z2 | [E,C]2 [C,C]2 z z/[K:treble] B/[K:bass] [C,C]2 | [E,C]2 [C,C]2 z2 [C,C]2 | %20
 [F,C]2 [C,C]2 z z/ _A/ z z/[K:treble] =B/ | F,2 C,2 F,2 C,2 | ^C,2 A,,2 z A, z A, | %23
 D,2 E,2 F,2 D,2 | E,2 F,2 z C z C | F,2 G,2 A,2[K:treble] [_A,CF]2 | %26
 [G,G]3- [G,-CG-] [G,=B,G]2 [G,B,G]2 | G2 z2 z4 | [G,CG]3 [G,CG] [G,=B,F]2 [G,B,F]2 | [C,C]6 z2 | %30
 [E,C]2 [C,C]2 z z/[K:treble] B/[K:bass] [C,C]2 | [E,C]2 [C,C]2 z2 [C,C]2 | %32
 [F,C]2 [C,C]2 z z/ _A/ z z/[K:treble] B/ | F,2 C,2 F,2[K:treble] [A,CF]2 | %34
 [B,F]2 [A,C^F]2 [G,B,]2 [=B,DG]2 | [CG]2 [B,CG]2 [A,^C]2 [A,CA]2 | [DA]3 [DA] [=B,DG]2 [G,DG]2 | %37
[M:3/4] [CG]2 G4 |[M:1/4] [B,CG]2 |[M:4/4] [CF]3 [CA][K:bass] .[B,,C]2 .[D,B,]2 | %40
 [F,A,F]2 [G,B,E]2 [A,CF]2 [B,DF]2 | [CF]3 [CF][K:bass] C,2 z C |[M:3/4] F,,6 |] %43
V:3
 x8 | x8 | x8 | x8 | x8 | x8 | x8 | x8 |[M:3/4] [EB]2 z2 z2 |[M:1/4] x2 |[M:4/4] x8 | x8 | x8 | %13
 x8 | x8 | x8 | x8 | x8 | z2 [Bd]4 z2 | [Bd]2 z2 [E,C]2 [Bd]2 | z2 [Ac]4 z2 | [CAc]2 C2 C2 [CFA]2 | %22
 z2 [A,A]4 .[A,A]2 | z2 [A,A]4 z2 | [CGc]2 A2 z cG-[Gc] | z2 [Cc]4 z2 | x8 | z2 G2 G2 [Af]2 | x8 | %29
 x8 | z2 [Bd]4 z2 | [Bd]2 z2 [E,C]2 [Bd]2 | z2 [Ac]4 z2 | [CAc]2 C2 C2 c2 | z2 d4 z2 | z2 e4 z2 | %36
 f4 z4 |[M:3/4] e2 z2 C2 |[M:1/4] x2 |[M:4/4] z2 z f z[K:bass] C,[K:treble] z E, | x8 | x8 | %42
[M:3/4] x6 |] %43
V:4
 x8 | x8 | x8 | x8 | x8 | x8 | x8 | x8 |[M:3/4] C,6 |[M:1/4] x2 |[M:4/4] x8 | x8 | x8 | x8 | x8 | %15
 x8 | x8 | x8 | z4 E,2[K:treble][K:bass] z2 | x8 | z4 F,2 [C,C]2[K:treble] | x8 | z4 =B,,2 ^C,2 | %23
 x8 | z4 G,2 E,2 | x6[K:treble] x2 | C4 z4 | C2- [C,C]2 C2 [F,C]2 | x8 | x8 | %30
 z4 E,2[K:treble][K:bass] z2 | x8 | z4 F,2 [C,C]2[K:treble] | x6[K:treble] x2 | x8 | x8 | x8 | %37
[M:3/4] z2 [CD]2 z2 |[M:1/4] x2 |[M:4/4] A,2 z2[K:bass] z4 | x8 | z4[K:bass] z2 C,2 |[M:3/4] x6 |] %43
V:5
 x8 | x8 | x8 | x8 | x8 | x8 | x8 | x8 |[M:3/4] x6 |[M:1/4] x2 |[M:4/4] x8 | x8 | x8 | x8 | x8 | %15
 x8 | x8 | x8 | z4 C2 z2 | x8 | z4 C2 z2 | x8 | z4 D2 z2 | x8 | z2 [Cc]4 .[Cc]2 | x8 | x8 | x8 | %28
 x8 | x8 | z4 C2 z2 | x8 | z4 C2 z2 | x8 | z4 G2 z2 | z4 G2 z2 | z2 C2 z4 |[M:3/4] x6 |[M:1/4] x2 | %39
[M:4/4] z2 F,2 z4[K:bass][K:treble] | x8 | x8 |[M:3/4] x6 |] %43

